X: 21415
T: Kesh, The
R: jig
M: 6/8
K: Gmajor
D|:"G" G3 GAB|"D" A2A ABd|"C" edd "G" gdd|"C" edB "D" dBA|
"G" G3 GAB|"D" A2A ABd|"C" edd "G" gdB|1 "D" AGF "G" G2D:|2 "D" AGF "G" G2A||
|:"G" B3 dBd|"C" ege "G" dBA|"G" B2B dBG|"D" A2A AGA|
"G" B2B dBd|"C" ege "G" dBd|"C" gfg "D" aga|1 "G" bgf g2A:|2 "G" bgf g2D||

